src/resources/assets/gamma.svg

<svg xmlns="http://www.w3.org/2000/svg" width="16" height="16"><g fill="#ddd"><path d="M 8.171875 8.839844 C 7.855469 7.339844 7.507812 6.152344 7.125 5.269531 C 6.742188 4.390625 6.394531 3.949219 6.078125 3.949219 C 5.921875 3.949219 5.796875 4.027344 5.699219 4.179688 C 5.601562 4.332031 5.539062 4.546875 5.515625 4.828125 L 5.15625 4.828125 L 5.15625 4.363281 C 5.15625 3.738281 5.246094 3.269531 5.425781 2.964844 C 5.609375 2.65625 5.882812 2.5 6.246094 2.5 C 6.917969 2.5 7.617188 4.167969 8.347656 7.5 L 8.484375 8.140625 C 8.988281 6.945312 9.324219 5.636719 9.496094 4.21875 C 9.519531 4.035156 9.535156 3.90625 9.550781 3.828125 C 9.613281 3.367188 9.707031 3.03125 9.839844 2.824219 C 9.972656 2.621094 10.152344 2.515625 10.375 2.515625 C 10.59375 2.515625 10.761719 2.574219 10.875 2.691406 C 10.988281 2.808594 11.046875 2.980469 11.046875 3.203125 C 11.046875 3.621094 10.730469 4.472656 10.09375 5.761719 C 9.457031 7.050781 8.980469 8.09375 8.660156 8.886719 C 8.738281 9.472656 8.800781 9.996094 8.84375 10.460938 C 8.890625 10.929688 8.910156 11.320312 8.910156 11.640625 C 8.910156 12.164062 8.855469 12.539062 8.75 12.765625 C 8.644531 12.992188 8.472656 13.105469 8.238281 13.105469 C 8.011719 13.105469 7.835938 13.011719 7.71875 12.824219 C 7.601562 12.636719 7.542969 12.355469 7.542969 11.984375 C 7.542969 11.613281 7.597656 11.164062 7.703125 10.636719 C 7.8125 10.113281 7.96875 9.511719 8.171875 8.839844 Z M 8.171875 8.839844"/><path d="M8.171875 8.839844C7.855469 7.339844 7.507812 6.152344 7.125 5.269531 6.742188 4.390625 6.394531 3.949219 6.078125 3.949219 5.921875 3.949219 5.796875 4.027344 5.699219 4.179688 5.601562 4.332031 5.539062 4.546875 5.515625 4.828125L5.15625 4.828125 5.15625 4.363281C5.15625 3.738281 5.246094 3.269531 5.425781 2.964844 5.609375 2.65625 5.882812 2.5 6.246094 2.5 6.917969 2.5 7.617188 4.167969 8.347656 7.5L8.484375 8.140625C8.988281 6.945312 9.324219 5.636719 9.496094 4.21875 9.519531 4.035156 9.535156 3.90625 9.550781 3.828125 9.613281 3.367188 9.707031 3.03125 9.839844 2.824219 9.972656 2.621094 10.152344 2.515625 10.375 2.515625 10.59375 2.515625 10.761719 2.574219 10.875 2.691406 10.988281 2.808594 11.046875 2.980469 11.046875 3.203125 11.046875 3.621094 10.730469 4.472656 10.09375 5.761719 9.457031 7.050781 8.980469 8.09375 8.660156 8.886719 8.738281 9.472656 8.800781 9.996094 8.84375 10.460938 8.890625 10.929688 8.910156 11.320312 8.910156 11.640625 8.910156 12.164062 8.855469 12.539062 8.75 12.765625 8.644531 12.992188 8.472656 13.105469 8.238281 13.105469 8.011719 13.105469 7.835938 13.011719 7.71875 12.824219 7.601562 12.636719 7.542969 12.355469 7.542969 11.984375 7.542969 11.613281 7.597656 11.164062 7.703125 10.636719 7.8125 10.113281 7.96875 9.511719 8.171875 8.839844zM4.59375 2.472656C4.679688 2.480469 4.726562 2.460938 4.722656 2.410156 4.71875 2.347656 4.699219 2.339844 4.597656 2.339844L4.59375 2.339844C4.589844 2.339844 4.589844 2.339844 4.589844 2.34375 4.589844 2.347656 4.589844 2.347656 4.59375 2.347656L4.597656 2.347656C4.695312 2.347656 4.710938 2.355469 4.714844 2.410156 4.71875 2.453125 4.679688 2.472656 4.59375 2.464844 4.59375 2.464844 4.589844 2.464844 4.589844 2.464844 4.589844 2.46875 4.589844 2.472656 4.59375 2.472656zM4.578125 2.519531L4.726562 2.519531C4.730469 2.519531 4.730469 2.519531 4.730469 2.515625 4.730469 2.511719 4.730469 2.511719 4.726562 2.511719L4.578125 2.511719C4.574219 2.511719 4.574219 2.511719 4.574219 2.515625 4.574219 2.519531 4.574219 2.519531 4.578125 2.519531zM4.578125 2.519531"/></g></svg>

<svg xmlns="http://www.w3.org/2000/svg" width="16" height="16"><g fill="#ddd"><path d="M8.172 8.84c-.317-1.5-.664-2.688-1.047-3.57-.383-.88-.73-1.32-1.047-1.32-.156 0-.281.077-.379.23-.097.152-.16.367-.183.648h-.36v-.465c0-.625.09-1.093.27-1.398a.897.897 0 01.82-.465c.672 0 1.371 1.668 2.102 5l.136.64c.504-1.195.84-2.503 1.012-3.921.024-.184.04-.313.055-.39.062-.462.156-.798.289-1.005.133-.203.312-.308.535-.308.219 0 .387.058.5.175.113.118.172.29.172.512 0 .418-.317 1.27-.953 2.559C9.457 7.05 8.98 8.094 8.66 8.887c.078.586.14 1.11.184 1.574.047.469.066.86.066 1.18 0 .523-.055.898-.16 1.125-.105.226-.277.34-.512.34a.577.577 0 01-.52-.282c-.116-.187-.175-.469-.175-.84 0-.37.055-.82.16-1.347a21.5 21.5 0 01.469-1.797zm0 0"/><path d="M8.172 8.84c-.317-1.5-.664-2.688-1.047-3.57-.383-.88-.73-1.32-1.047-1.32-.156 0-.281.077-.379.23-.097.152-.16.367-.183.648h-.36v-.465c0-.625.09-1.093.27-1.398a.897.897 0 01.82-.465c.672 0 1.371 1.668 2.102 5l.136.64c.504-1.195.84-2.503 1.012-3.921.024-.184.04-.313.055-.39.062-.462.156-.798.289-1.005.133-.203.312-.308.535-.308.219 0 .387.058.5.175.113.118.172.29.172.512 0 .418-.317 1.27-.953 2.559C9.457 7.05 8.98 8.094 8.66 8.887c.078.586.14 1.11.184 1.574.047.469.066.86.066 1.18 0 .523-.055.898-.16 1.125-.105.226-.277.34-.512.34a.577.577 0 01-.52-.282c-.116-.187-.175-.469-.175-.84 0-.37.055-.82.16-1.347a21.5 21.5 0 01.469-1.797zM4.594 2.473c.086.007.133-.012.129-.063-.004-.062-.024-.07-.125-.07h-.004c-.004 0-.004 0-.004.004s0 .004.004.004h.004c.097 0 .113.007.117.062.004.043-.035.063-.121.055H4.59c0 .004 0 .008.004.008zm-.016.047h.149c.003 0 .003 0 .003-.004s0-.004-.003-.004h-.149c-.004 0-.004 0-.004.004s0 .004.004.004zm0 0"/></g></svg>
